!!!!SEGMENT: pl-kk--kk-i-382--093-004_haslinger--msza-credo.krn
!!!cenid: 18xx:1600
!!!COM: Haslinger
!!!COM-rismID: pe30052852
!!!CDT:
!!!CNT:
!!!OPR: Msza
!!!OTL: Credo
!!!OMV: 004
!!!PDT:
!!!AGN: Sacred; Mass
!!!SMS-siglum: PL-Kk
!!!SMS-shelfmark: Kk.I.382
!!!SMS-shelfwork: 093-004 M
!!!SMS-variant:
!!!SMS-altvar:
!!!NIFC-rismSourceID: 1001139027
!!!NIFC-rismChildID: 1001142971
!!!NIFC-islandoraID: pl-kk:6162
!!!URL-pdf-islandora: https://repozytorium.nifc.pl/islandora/object/pl-kk%3A6162/datastream/PDF/view
!!!URL-scan: https://polish.musicsources.pl/pl/lokalizacje/galeria/rekopisy/5994 @EN{Scan on Polish Music Sources Website} @PL{Skany w portalu Dziedzictwo Muzyki Polskiej w otwartym dostępie}
!!!ONB-nifc: S/T1 od 0056, T2 od 0131, A/B1 od 0201, B2 od 0274. Części Mszy: 1. Kyrie, 2. Gloria, 3. Graduale, 4. Credo, 5. Offertorium, 6. Sanctus, 7. Benedictus, 8. Agnus
!!!AIN: 2 empty 2 tenor
!!!key:
**kern	**text	**dynam	**kern	**text	**dynam	**kern	**text	**dynam	**kern	**text	**dynam
*part4	*part4	*part4	*part3	*part3	*part3	*part2	*part2	*part2	*part1	*part1	*part1
*staff4	*staff4	*	*staff3	*staff3	*	*staff2	*staff2	*	*staff1	*staff1	*
*group1	*	*	*group1	*	*	*group1	*	*	*group1	*	*
*Iempty	*	*	*Iempty	*	*	*Itenor	*	*	*Itenor	*	*
*I"Baſso IIdo	*	*	*I"Baſso Imo	*	*	*I"Tenore II	*	*	*I"Tenor I	*	*
*I'B II	*	*	*I'B I	*	*	*I'T II	*	*	*I'T I	*	*
*clefF4	*	*	*clefF4	*	*	*clefG2	*	*	*clefG2	*	*
*	*	*	*	*	*	*ITrd7c12	*	*	*ITrd7c12	*	*
*k[b-e-a-]	*	*	*k[b-e-a-]	*	*	*k[b-e-a-]	*	*	*k[b-e-a-]	*	*
*E-:	*	*	*E-:	*	*	*E-:	*	*	*E-:	*	*
*M4/4	*	*	*M4/4	*	*	*M4/4	*	*	*M4/4	*	*
*met(c)	*	*	*met(c)	*	*	*met(c)	*	*	*met(c)	*	*
*all\right	*	*	*all\right	*	*	*all\right	*	*	*all\right	*	*
*	*	*below	*	*	*below	*	*	*below	*	*	*below
=1	=1	=1	=1	=1	=1	=1	=1	=1	=1	=1	=1
!LO:TX:a:B:t=Moderato Sempre piano	!	!LO:DY:rj:problem=na środku pięciolinii	!LO:TX:a:B:t=Moderato	!	!	!LO:TX:a:B:t=Moderato sempre piano	!	!	!LO:TX:a:B:t=Moderato sempre piano	!	!
(1E-	Cre-	pp	(1E-	Cre-	.	(>1G	Cre-	.	4B-\	Cre-	.
.	.	.	.	.	.	.	.	.	8B-\	-do	.
.	.	.	.	.	.	.	.	.	8B-\	in	.
.	.	.	.	.	.	.	.	.	4B-\	u-	.
.	.	.	.	.	.	.	.	.	4B-\	-num	.
=2	=2	=2	=2	=2	=2	=2	=2	=2	=2	=2	=2
*2\right	*	*	*2\right	*	*	*	*	*	*	*	*
2D\)	.	.	2F\)	.	.	2A-/)	.	.	4B-\	De-	.
.	.	.	.	.	.	.	.	.	4B-\	-um	.
!LO:TX:t=Credo	!	!	!	!	!	!	!	!	!	!	!
2E-\	-do	.	2E-\	-do	.	2G/	-do	.	4B-\	Pa-	.
.	.	.	.	.	.	.	.	.	8B-\	-trem	.
.	.	.	.	.	.	.	.	.	8B-\	om-	.
!	!	!	!	!	!	!	!	!	!LO:LB:g=original	!	!
=3	=3	=3	=3	=3	=3	=3	=3	=3	=3	=3	=3
1BB-	Cre-	.	(2E-\	Cre-	.	1F	cre-	.	4B-\	-ni-	.
.	.	.	.	.	.	.	.	.	4B-\	-po-	.
*	*	*	*	*	*	*	*	*	*2\right	*	*
.	.	.	2D\)	.	.	.	.	.	2B-\	-ten-	.
!	!	!	!LO:LB:g=original	!	!	!	!	!	!	!	!
=4	=4	=4	=4	=4	=4	=4	=4	=4	=4	=4	=4
2.E-\	-do	.	2.E-\	-do	.	2.G/	-do	.	4B-\	-tem	.
.	.	.	.	.	.	.	.	.	4e-\	fac-	.
.	.	.	.	.	.	.	.	.	4e-\	-to-	.
4r	.	.	4r	.	.	4r	.	.	4e-\	-rem	.
=5	=5	=5	=5	=5	=5	=5	=5	=5	=5	=5	=5
1G	Cre-	.	1B-	Cre-	.	1d-X	cre-	.	4e-\	cae-	.
.	.	.	.	.	.	.	.	.	8e-\	-li	.
.	.	.	.	.	.	.	.	.	8e-\	et	.
.	.	.	.	.	.	.	.	.	4e-\	ter-	.
.	.	.	.	.	.	.	.	.	4e-\	-rae	.
=6	=6	=6	=6	=6	=6	=6	=6	=6	=6	=6	=6
1A-	-do	.	1A-	-do	.	1c	-do	.	4e-\	vi-	.
.	.	.	.	.	.	.	.	.	4e-\	-si-	.
!	!	!	!	!	!	!	!	!	!LO:LB:g=original	!	!
.	.	.	.	.	.	.	.	.	8e-\	-bi-	.
.	.	.	.	.	.	.	.	.	8e-\	-li-	.
.	.	.	.	.	.	.	.	.	4e-\	-um	.
!	!	!	!	!	!	!LO:LB:g=original	!	!	!	!	!
=7	=7	=7	=7	=7	=7	=7	=7	=7	=7	=7	=7
[1E-	cre-	.	(1A-	cre-	.	[1B-	cre-	.	8e-\	om-	.
.	.	.	.	.	.	.	.	.	8e-\	-ni-	.
.	.	.	.	.	.	.	.	.	4e-\	-um	.
.	.	.	.	.	.	.	.	.	8e-\	et	.
.	.	.	.	.	.	.	.	.	8e-\	in-	.
.	.	.	.	.	.	.	.	.	8e-\	-vi-	.
.	.	.	.	.	.	.	.	.	8e-\	-si-	.
!LO:LB:g=original	!	!	!	!	!	!	!	!	!	!	!
=8	=8	=8	=8	=8	=8	=8	=8	=8	=8	=8	=8
1E-]	.	.	1G)	.	.	1B-]	.	.	8e-\	-bi-	.
.	.	.	.	.	.	.	.	.	8e-\	-li-	.
.	.	.	.	.	.	.	.	.	4e-\	-um	.
.	.	.	.	.	.	.	.	.	8e-\	et	.
.	.	.	.	.	.	.	.	.	8e-\	in	.
.	.	.	.	.	.	.	.	.	8e-\	u-	.
.	.	.	.	.	.	.	.	.	8e-\	-num	.
!	!	!	!	!	!	!	!	!	!LO:LB:g=original	!	!
=9	=9	=9	=9	=9	=9	=9	=9	=9	=9	=9	=9
1AA-	-do	.	1A-	-do	.	1c	-do	.	8.e-\	Do-	.
.	.	.	.	.	.	.	.	.	16e-\	-mi-	.
.	.	.	.	.	.	.	.	.	4e-\	-num	.
.	.	.	.	.	.	.	.	.	4e-\	Je-	.
.	.	.	.	.	.	.	.	.	4e-\	-sum	.
=10	=10	=10	=10	=10	=10	=10	=10	=10	=10	=10	=10
1GG	cre-	.	1En	Cre-	.	1B-	cre-	.	4c\	Chri-	.
.	.	.	.	.	.	.	.	.	4c\	-stum	.
.	.	.	.	.	.	.	.	.	4c\	fi-	.
.	.	.	.	.	.	.	.	.	8c\	-li-	.
.	.	.	.	.	.	.	.	.	8c\	-um	.
=11	=11	=11	=11	=11	=11	=11	=11	=11	=11	=11	=11
1FF	-do	.	1F	-do	.	1A-	-do	.	8c\	De-	.
.	.	.	.	.	.	.	.	.	8c\	-i	.
.	.	.	.	.	.	.	.	.	8c\	u-	.
.	.	.	.	.	.	.	.	.	8c\	-ni-	.
.	.	.	.	.	.	.	.	.	8.c\	-ge-	.
.	.	.	.	.	.	.	.	.	16c\	-ni-	.
.	.	.	.	.	.	.	.	.	4c\	-tum	.
!	!	!	!	!	!	!	!	!	!LO:LB:g=original	!	!
=12	=12	=12	=12	=12	=12	=12	=12	=12	=12	=12	=12
(>1C	cre-	.	(1En	Cre-	.	(>1G	cre-	.	8c\	Et	.
.	.	.	.	.	.	.	.	.	8c\	ex	.
.	.	.	.	.	.	.	.	.	8c\	pa-	.
.	.	.	.	.	.	.	.	.	8c\	-tre	.
.	.	.	.	.	.	.	.	.	4c\	na-	.
.	.	.	.	.	.	.	.	.	4c\	-tum	.
!	!	!	!LO:LB:g=original	!	!	!	!	!	!	!	!
=13	=13	=13	=13	=13	=13	=13	=13	=13	=13	=13	=13
2FF/)	.	.	2F\)	.	.	2A-/)	.	.	4c\	an-	.
.	.	.	.	.	.	.	.	.	4c\	-te	.
*	*	*	*	*	*	*2\right	*	*	*	*	*
2F\	-do	.	2A-\	-do	.	2c\	-do	.	4c\	om-	.
.	.	.	.	.	.	.	.	.	8c\	-ni-	.
.	.	.	.	.	.	.	.	.	8c\	-a	.
=14	=14	=14	=14	=14	=14	=14	=14	=14	=14	=14	=14
1E-X	cre-	.	1An	Cre-	.	1c	cre-	.	8.f\	sae-	.
.	.	.	.	.	.	.	.	.	16f\	-cu-	.
.	.	.	.	.	.	.	.	.	4f\	-li	.
.	.	.	.	.	.	.	.	.	4f\	De-	.
.	.	.	.	.	.	.	.	.	8f\	-um	.
.	.	.	.	.	.	.	.	.	8f\	de	.
!	!	!	!	!	!	!	!	!	!LO:LB:g=original	!	!
=15	=15	=15	=15	=15	=15	=15	=15	=15	=15	=15	=15
1D	-do	.	1B-	-do	.	1B-	-do	.	4f\	De-	.
.	.	.	.	.	.	.	.	.	4f\	-o	.
.	.	.	.	.	.	.	.	.	4f\	lu-	.
.	.	.	.	.	.	.	.	.	8f\	-men	.
.	.	.	.	.	.	.	.	.	8f\	de	.
=16	=16	=16	=16	=16	=16	=16	=16	=16	=16	=16	=16
1C	cre-	.	1E-	Cre-	.	1An	cre-	.	8f\	lu-	.
.	.	.	.	.	.	.	.	.	8f\	-mi-	.
.	.	.	.	.	.	.	.	.	4f\	-ne	.
.	.	.	.	.	.	.	.	.	4f\	De-	.
.	.	.	.	.	.	.	.	.	4f\	-um	.
=17	=17	=17	=17	=17	=17	=17	=17	=17	=17	=17	=17
1BB-	-do	.	1D	-do	.	1B-	-do	.	4f\	ve-	.
.	.	.	.	.	.	.	.	.	8f\	-rum	.
.	.	.	.	.	.	.	.	.	8f\	de	.
.	.	.	.	.	.	.	.	.	8f\	De-	.
.	.	.	.	.	.	.	.	.	8f\	-o	.
.	.	.	.	.	.	.	.	.	4f\	ve-	.
!LO:LB:g=original	!	!	!	!	!	!LO:LB:g=original	!	!	!LO:LB:g=original	!	!
=18	=18	=18	=18	=18	=18	=18	=18	=18	=18	=18	=18
1AAn	cre-	.	1F#X	Cre-	.	1c	cre-	.	4d\	-ro	.
.	.	.	.	.	.	.	.	.	8d\	ge-	.
.	.	.	.	.	.	.	.	.	8d\	-ni-	.
.	.	.	.	.	.	.	.	.	4d\	-tum	.
.	.	.	.	.	.	.	.	.	4d\	non	.
=19	=19	=19	=19	=19	=19	=19	=19	=19	=19	=19	=19
1GG	-do	.	1G	-do	.	1B-	-do	.	4d\	fa-	.
.	.	.	.	.	.	.	.	.	4d\	-ctum	.
.	.	.	.	.	.	.	.	.	4d\	con-	.
.	.	.	.	.	.	.	.	.	4d\	-sub-	.
=20	=20	=20	=20	=20	=20	=20	=20	=20	=20	=20	=20
1D	cre-	.	1F#X	Cre-	.	1An	cre-	.	4d\	-stan-	.
.	.	.	.	.	.	.	.	.	4d\	-ti-	.
.	.	.	.	.	.	.	.	.	4d\	-a-	.
.	.	.	.	.	.	.	.	.	4d\	-lem	.
!	!	!	!LO:PB:g=original	!	!	!	!	!	!LO:LB:g=original	!	!
=21	=21	=21	=21	=21	=21	=21	=21	=21	=21	=21	=21
1BB-X	-do	.	1G	-do	.	1G	-do	.	4d\	Pa-	.
.	.	.	.	.	.	.	.	.	4d\	-tri	.
.	.	.	.	.	.	.	.	.	4d\	per	.
.	.	.	.	.	.	.	.	.	4d\	quem	.
=22	=22	=22	=22	=22	=22	=22	=22	=22	=22	=22	=22
1BB-	cre-	.	1Fn	Cre-	.	1A-X	cre-	.	4d\	om-	.
.	.	.	.	.	.	.	.	.	8d\	-ni-	.
.	.	.	.	.	.	.	.	.	8d\	-a	.
.	.	.	.	.	.	.	.	.	4d\	fa-	.
.	.	.	.	.	.	.	.	.	4d\	-cta	.
=23	=23	=23	=23	=23	=23	=23	=23	=23	=23	=23	=23
1E-	-do	.	1E-	-do	.	1G	-do	.	4e-\	sunt	.
.	.	.	.	.	.	.	.	.	4e-\	qui	.
.	.	.	.	.	.	.	.	.	4e-\	prop-	.
.	.	.	.	.	.	.	.	.	8.e-\	-ter	.
.	.	.	.	.	.	.	.	.	16e-\	nos	.
!	!	!	!	!	!	!	!	!	!LO:LB:g=original	!	!
=24	=24	=24	=24	=24	=24	=24	=24	=24	=24	=24	=24
1En	cre-	.	1G	Cre-	.	1B-	cre-	.	4.d-X\	ho-	.
.	.	.	.	.	.	.	.	.	8d-\	-mi-	.
.	.	.	.	.	.	.	.	.	4d-\	-nes	.
.	.	.	.	.	.	.	.	.	4d-\	et	.
=25	=25	=25	=25	=25	=25	=25	=25	=25	=25	=25	=25
1En	-do	.	1G	-do	.	1B-	-do	.	4c\	prop-	.
!	!	!	!	!	!	!	!	!	!	!LO:SIC:v:l:s=-ter	!
.	.	.	.	.	.	.	.	.	4c\	-ler	.
.	.	.	.	.	.	.	.	.	4c\	no-	.
.	.	.	.	.	.	.	.	.	8c\	-stram	.
.	.	.	.	.	.	.	.	.	8c\	sa-	.
=26	=26	=26	=26	=26	=26	=26	=26	=26	=26	=26	=26
1F	cre-	.	1F	Cre-	.	1A-	cre-	.	4c\	-lu-	.
.	.	.	.	.	.	.	.	.	8c\	-tem	.
.	.	.	.	.	.	.	.	.	8c\	de-	.
.	.	.	.	.	.	.	.	.	4c\	-scen-	.
.	.	.	.	.	.	.	.	.	8c\	-dit	.
.	.	.	.	.	.	.	.	.	8c\	de	.
!	!	!	!	!	!	!	!	!	!LO:LB:g=original	!	!
=27	=27	=27	=27	=27	=27	=27	=27	=27	=27	=27	=27
1D	-do	.	1F	-do	.	1A-	-do	.	2B-\	coe-	.
.	.	.	.	.	.	.	.	.	4B-\	-lis	.
.	.	.	.	.	.	.	.	.	4B-\	de-	.
!LO:PB:g=original	!	!	!	!	!	!	!	!	!	!	!
=28	=28	=28	=28	=28	=28	=28	=28	=28	=28	=28	=28
(1E-X	cre-	.	[1E-	Cre-	.	(>1G	cre-	.	2B-\	-scen-	.
.	.	.	.	.	.	.	.	.	4B-\	-dit	.
.	.	.	.	.	.	.	.	.	4B-\	de	.
=29	=29	=29	=29	=29	=29	=29	=29	=29	=29	=29	=29
1C)	.	.	1E-]	.	.	1F)	.	.	(2B-\	coe-	.
.	.	.	.	.	.	.	.	.	2An\)	.	.
=30	=30	=30	=30	=30	=30	=30	=30	=30	=30	=30	=30
!	!	!	!	!	!	!	!	!	!LO:TX:b:t=V&colon; S&colon;	!	!
1BB-;	-do	.	1D;	-do.	.	1F;	-do	.	1B-;	-lis	.
!	!	!	!LO:LB:g=original	!	!	!LO:LB:g=original	!	!	!LO:PB:g=original	!	!
=31|!	=31|!	=31|!	=31|!	=31|!	=31|!	=31|!	=31|!	=31|!	=31|!	=31|!	=31|!
*k[b-e-a-]	*	*	*k[b-e-a-]	*	*	*k[b-e-a-]	*	*	*k[b-e-a-]	*	*
*M3/4	*	*	*M3/4	*	*	*M3/4	*	*	*M3/4	*	*
!LO:TX:a:B:t=Andante sostenuto	!	!	!	!	!	!LO:TX:b:B:t=Andante sustenuto	!	!	!	!	!
!LO:TX:a:t=Et incarnatus	!	!LO:DY:rj	!	!	!LO:DY:rj	!LO:TX:t=P:problem=zmiana metrum nieoznaczona	!	!	!LO:TX:a:B:t=Andante sostenuto	!	!
2BBn/	Cre-	pp	2D\	Cre-	pp	2.r	.	.	4G/	Et	.
.	.	.	.	.	.	.	.	.	4G/	in-	.
4BB/	-do	.	4D\	-do	.	.	.	.	4G/	-car-	.
!LO:LB:g=original	!	!	!	!	!	!	!	!	!	!	!
=32	=32	=32	=32	=32	=32	=32	=32	=32	=32	=32	=32
(2C/	Cre-	.	(2E-\	Cre-	.	4r	.	.	8.G/	-na-	.
.	.	.	.	.	.	.	.	.	16G/	-tus	.
.	.	.	.	.	.	4r	.	.	4G/	est	.
!	!	!	!	!	!	!	!	!LO:DY:rj	!	!	!
(4D/)	.	.	4F\	.	.	[>4G/	Cre-	pp	4Bn\	de	.
=33	=33	=33	=33	=33	=33	=33	=33	=33	=33	=33	=33
2E-\)	.	.	2G\)	.	.	2G/]	.	.	2c\	spi-	.
4En\	-do	.	4G\	-do	.	4B-X\	-do	.	8c\	-ri-	.
.	.	.	.	.	.	.	.	.	8c\	-tu	.
=34	=34	=34	=34	=34	=34	=34	=34	=34	=34	=34	=34
2F\	cre-	.	2A-\	Cre-	.	(2A-/	cre-	.	4c\	san-	.
.	.	.	.	.	.	.	.	.	4c\	-cto	.
4G\	-do	.	4B-\	-do	.	[4c\)	.	.	8en\	na-	.
.	.	.	.	.	.	.	.	.	8e\	-tus	.
!	!	!	!	!	!	!	!	!	!LO:LB:g=original	!	!
=35	=35	=35	=35	=35	=35	=35	=35	=35	=35	=35	=35
2A-\	cre-	.	2c\	Cre-	.	2c\]	.	.	4.f\	ex	.
.	.	.	.	.	.	.	.	.	8f\	Ma-	.
4A-\	-do	.	4c\	-do	.	4e-X\	-do	.	8f\	-ri-	.
.	.	.	.	.	.	.	.	.	8f\	-a	.
!	!	!	!LO:LB:g=original	!	!	!	!	!	!	!	!
=36	=36	=36	=36	=36	=36	=36	=36	=36	=36	=36	=36
!LO:TX:a:t=Tenor I ma F	!	!	!	!	!	!	!	!	!	!	!
(2.B-\	cre-	.	[2.B-\	Cre-	.	(2.d\	cre-	.	8.f\	vir-	.
.	.	.	.	.	.	.	.	.	16f\	-gi-	.
.	.	.	.	.	.	.	.	.	4f\	-ne	.
.	.	.	.	.	.	.	.	.	4f\	et	.
=37	=37	=37	=37	=37	=37	=37	=37	=37	=37	=37	=37
2.F\)	.	.	2B-\]	.	.	2.c\)	.	.	4.f\	ho-	.
.	.	.	.	.	.	.	.	.	8f\	-mo	.
.	.	.	4An\	-do	.	.	.	.	8f\	fac-	.
.	.	.	.	.	.	.	.	.	8f\	-tus	.
!	!	!	!	!	!	!LO:LB:g=original	!	!	!LO:LB:g=original	!	!
=38	=38	=38	=38	=38	=38	=38	=38	=38	=38	=38	=38
2.BB-;/	-do	.	2.B-;<\	.	.	2.d;\	-do	.	2.f;<\	est.	.
!LO:LB:g=original	!	!	!	!	!	!	!	!	!	!	!
=39	=39	=39	=39	=39	=39	=39	=39	=39	=39	=39	=39
!	!	!LO:DY:rj:problem=na środku pięciolinii	!	!	!LO:DY:rj:problem=na środku pięciolinii	!	!	!LO:DY:rj:problem=na środku pięciolinii	!	!	!LO:DY:rj:problem=na środku pięciolinii
2.BBn/	cre-	f	[2.G\	Cre-	f	2.d\	cre-	f	8.g\	Cru-	f
.	.	.	.	.	.	.	.	.	16g\	-ci-	.
.	.	.	.	.	.	.	.	.	4g\	-fi-	.
.	.	.	.	.	.	.	.	.	4g\	-xus	.
=40	=40	=40	=40	=40	=40	=40	=40	=40	=40	=40	=40
2.C/	-do	.	2G\]	.	.	2.c\	-do	.	4.e-\	E-	.
.	.	.	.	.	.	.	.	.	8e-\	-ti-	.
.	.	.	4E-\	-do	.	.	.	.	8c\	-am	.
.	.	.	.	.	.	.	.	.	8c\	pro	.
=41	=41	=41	=41	=41	=41	=41	=41	=41	=41	=41	=41
2.GG/	cre-	.	2.D\	Cre-	.	2.F/	cre-	.	8Bn\	no-	.
.	.	.	.	.	.	.	.	.	16B\	-bis	.
.	.	.	.	.	.	.	.	.	16B\	sub	.
!	!	!	!	!	!	!	!	!	!LO:LB:g=original	!	!
.	.	.	.	.	.	.	.	.	8B\	Pon-	.
.	.	.	.	.	.	.	.	.	8B\	-ti-	.
.	.	.	.	.	.	.	.	.	8An\	-o	.
.	.	.	.	.	.	.	.	.	8B\	Pi-	.
=42	=42	=42	=42	=42	=42	=42	=42	=42	=42	=42	=42
2AA-X/	-do	.	2C/	-do	.	2E-/	-do	.	8d\L	-la-	.
.	.	.	.	.	.	.	.	.	8c\J	.	.
.	.	.	.	.	.	.	.	.	4c\	-to	.
!	!	!	!LO:TX:a:t=P:problem=brak początku łuku	!	!	!	!	!	!	!	!
4AAn/	cre-	.	(4E-/	Cre-	.	[>4F/	cre-	.	8c\	pas-	.
.	.	.	.	.	.	.	.	.	8c\	-sus	.
!	!	!	!LO:LB:g=original	!	!	!	!	!	!	!	!
=43	=43	=43	=43	=43	=43	=43	=43	=43	=43	=43	=43
2BB-/	-do	.	2D-X\	.	.	(>2F/]	.	.	2d-X\	pas-	.
4BBn/	cre-	.	4F\)	.	.	4A-/)	.	.	4dn\	-sus	.
=44	=44	=44	=44	=44	=44	=44	=44	=44	=44	=44	=44
2C/	-do	.	4E-\	-do	.	2G/	-do	.	4e-\	pas-	.
!	!	!	!	!	!LO:DY:rj	!	!	!	!	!	!
.	.	.	4G\	Cre-	pp	.	.	.	4e-\	-sus	.
!	!	!	!	!	!	!	!	!LO:DY:rj:problem=na środku pięciolinii	!	!	!LO:DY:rj:t=po.:problem=na środku pięciolinii
(<4AA-X/	cre-	.	4A-\	.	.	(4c\	cre-	pp	8f\	et	p
.	.	.	.	.	.	.	.	.	8f\	se-	.
!	!	!	!	!	!	!	!	!	!LO:LB:g=original	!	!
=45	=45	=45	=45	=45	=45	=45	=45	=45	=45	=45	=45
2.BB-/	.	.	2G\	.	.	(2B-X/)	.	.	2B-\	-pul-	.
.	.	.	4F\	.	.	4A-/)	.	.	4d\	-tus	.
!LO:LB:g=original	!	!	!	!	!	!	!	!	!	!	!
=46	=46	=46	=46	=46	=46	=46	=46	=46	=46	=46	=46
2.E-;\)	-do	.	2.E-;\	-do	.	2.G/	-do	.	2.e-;<\	est	.
!	!	!	!LO:LB:g=original	!	!	!LO:LB:g=original	!	!	!	!	!
=47|!	=47|!	=47|!	=47|!	=47|!	=47|!	=47|!	=47|!	=47|!	=47|!	=47|!	=47|!
*k[b-e-a-]	*	*	*k[b-e-a-]	*	*	*k[b-e-a-]	*	*	*k[b-e-a-]	*	*
*M4/4	*	*	*M4/4	*	*	*M4/4	*	*	*M4/4	*	*
*met(c)	*	*	*met(c)	*	*	*met(c)	*	*	*met(c)	*	*
!LO:TX:t=Et resurrexit\nModerato	!	!	!LO:TX:a:B:t=Et resurrexit \nModerato	!	!LO:DY:rj	!LO:TX:b:B:t=Moderato	!	!LO:DY:rj	!	!	!LO:DY:rj:problem=na środku pięciolinii
(2E-\	cre-	.	2E-\	Cre-	p	2G/	Cre-	p	4B-\	Et	p
.	.	.	.	.	.	.	.	.	8B-\	re-	.
.	.	.	.	.	.	.	.	.	8B-\	-sur-	.
2D\	.	.	2F\	-do	.	[>2F/	.	.	4B-\	-re-	.
.	.	.	.	.	.	.	.	.	4B-\	-xit	.
=48	=48	=48	=48	=48	=48	=48	=48	=48	=48	=48	=48
2C/)	.	.	2E-\	Cre-	.	2F/]	.	.	4An/	ter-	.
.	.	.	.	.	.	.	.	.	8A/	-ti-	.
.	.	.	.	.	.	.	.	.	8A/	-a	.
!	!	!	!	!	!	!	!	!	!LO:LB:g=original	!	!
2BB-/	-do	.	2D\	-do	.	2F/	-do	.	4B-\	di-	.
.	.	.	.	.	.	.	.	.	8B-\	-e	.
.	.	.	.	.	.	.	.	.	8B-\	se-	.
=49	=49	=49	=49	=49	=49	=49	=49	=49	=49	=49	=49
2AA-X/	cre-	.	2C/	Cre-	.	2A-/	cre-	.	4c\	-cun-	.
.	.	.	.	.	.	.	.	.	8c\	-dum	.
.	.	.	.	.	.	.	.	.	8c\	scrip-	.
2BB-/	-do	.	2F\	-do	.	2A-/	-do	.	4d\	-tu-	.
.	.	.	.	.	.	.	.	.	4d\	-ras	.
!LO:LB:g=original	!	!	!	!	!	!	!	!	!	!	!
=50	=50	=50	=50	=50	=50	=50	=50	=50	=50	=50	=50
2C/	cre-	.	(4E-\	Cre-	.	2G/	cre-	.	4e-\	et	.
.	.	.	4G\)	.	.	.	.	.	4e-\	as-	.
2D/	-do	.	2A-\	-do	.	2B-/	-do	.	4f\	-cen-	.
.	.	.	.	.	.	.	.	.	8f\	-dit	.
.	.	.	.	.	.	.	.	.	8f\	in	.
!	!	!	!	!	!	!	!	!	!LO:LB:g=original	!	!
=51	=51	=51	=51	=51	=51	=51	=51	=51	=51	=51	=51
2.E-\	cre-	.	2.G\	Cre-	.	2.B-\	cre-	.	4g\	coe-	.
.	.	.	.	.	.	.	.	.	4g\	-lum	.
.	.	.	.	.	.	.	.	.	4g\	se-	.
4E-\	-do	.	4G\	-do	.	4B-\	-do	.	8g\	-det	.
.	.	.	.	.	.	.	.	.	8g\	ad	.
!	!	!	!LO:LB:g=original	!	!	!	!	!	!	!	!
=52	=52	=52	=52	=52	=52	=52	=52	=52	=52	=52	=52
(2AA-/	cre-	.	(2A-\	Cre-	.	1c	cre-	.	8f\	dex-	.
.	.	.	.	.	.	.	.	.	8f\	-te-	.
.	.	.	.	.	.	.	.	.	4f\	-ram	.
2AAn/)	.	.	2F\)	.	.	.	.	.	4e-\	Pa-	.
.	.	.	.	.	.	.	.	.	8e-\	-tris	.
.	.	.	.	.	.	.	.	.	8e-\	et	.
=53	=53	=53	=53	=53	=53	=53	=53	=53	=53	=53	=53
1BB-	-do	.	1F	-do	.	1B-	-do	.	8d\	i-	.
.	.	.	.	.	.	.	.	.	8d\	-te-	.
.	.	.	.	.	.	.	.	.	8d\	-rum	.
.	.	.	.	.	.	.	.	.	8d\	ven-	.
!	!	!	!	!	!	!	!	!	!LO:LB:g=original	!	!
.	.	.	.	.	.	.	.	.	4d\	-tu-	.
.	.	.	.	.	.	.	.	.	4f\	-rus	.
=54	=54	=54	=54	=54	=54	=54	=54	=54	=54	=54	=54
1BBn	cre-	.	1G	Cre-	.	1d	cre-	.	4f\	est	.
.	.	.	.	.	.	.	.	.	4d\	cum	.
.	.	.	.	.	.	.	.	.	4g\	glo-	.
.	.	.	.	.	.	.	.	.	8f\	-ri-	.
.	.	.	.	.	.	.	.	.	8f\	-a	.
!	!	!	!	!	!	!LO:LB:g=original	!	!	!	!	!
=55	=55	=55	=55	=55	=55	=55	=55	=55	=55	=55	=55
1C	-do	.	1G	-do	.	1c	-do	.	8e-\	ju-	.
.	.	.	.	.	.	.	.	.	8e-\	-di-	.
.	.	.	.	.	.	.	.	.	8e-\	-ca-	.
.	.	.	.	.	.	.	.	.	8d\	-re	.
.	.	.	.	.	.	.	.	.	4c\	vi-	.
.	.	.	.	.	.	.	.	.	8c\	-vos	.
.	.	.	.	.	.	.	.	.	8c\	et	.
!	!	!	!	!	!	!	!	!	!LO:LB:g=original	!	!
=56	=56	=56	=56	=56	=56	=56	=56	=56	=56	=56	=56
1BB-X	cre-	.	1G	Cre-	.	[1c	cre-	.	8en\	mor-	.
.	.	.	.	.	.	.	.	.	8e\	-tu-	.
.	.	.	.	.	.	.	.	.	4e\	-os	.
.	.	.	.	.	.	.	.	.	4e\	cu-	.
.	.	.	.	.	.	.	.	.	8f\L	-jus	.
.	.	.	.	.	.	.	.	.	8g\J	.	.
=57	=57	=57	=57	=57	=57	=57	=57	=57	=57	=57	=57
2AA-X/	.	.	2C/	-do	.	1c]	.	.	4f\	re-	.
.	.	.	.	.	.	.	.	.	8c\	-gni	.
.	.	.	.	.	.	.	.	.	8c\	non	.
2GG/	.	.	2G\	Cre-	.	.	.	.	8e-X\	e-	.
.	.	.	.	.	.	.	.	.	8e-\	-rit	.
.	.	.	.	.	.	.	.	.	4e-\	fi-	.
!LO:LB:g=original	!	!	!	!	!	!	!	!	!LO:LB:g=original	!	!
=58	=58	=58	=58	=58	=58	=58	=58	=58	=58	=58	=58
!	!	!	!	!	!	!	!	!	!LO:TX:t=P:problem=dwa skreślone takty	!	!
1FF#X	-do	.	1An	-do	.	1c	-do	.	4d\	-nis	.
.	.	.	.	.	.	.	.	.	8d\	Et	.
.	.	.	.	.	.	.	.	.	8d\	in	.
!	!	!	!	!	!	!	!	!	!LO:LB:g=original	!	!
.	.	.	.	.	.	.	.	.	8.d\	spi-	.
.	.	.	.	.	.	.	.	.	16d\	-ri-	.
.	.	.	.	.	.	.	.	.	4d\	-tum	.
=59	=59	=59	=59	=59	=59	=59	=59	=59	=59	=59	=59
!	!	!	!LO:TX:a:t=2.	!	!	!	!	!	!	!	!
1GG	cre-	.	1r	.	.	(2Bn\	cre-	.	4d\	san-	.
.	.	.	.	.	.	.	.	.	4d\	-ctum	.
.	.	.	.	.	.	2c\)	.	.	8e-\	Do-	.
.	.	.	.	.	.	.	.	.	8e-\	-mi-	.
.	.	.	.	.	.	.	.	.	4e-\	-num	.
=60	=60	=60	=60	=60	=60	=60	=60	=60	=60	=60	=60
1AA-X	-do	.	1r	.	.	1c	-do	.	8e-\	et	.
.	.	.	.	.	.	.	.	.	8e-\	vi-	.
.	.	.	.	.	.	.	.	.	8en\	-vi-	.
.	.	.	.	.	.	.	.	.	8e\	-fi-	.
.	.	.	.	.	.	.	.	.	4f\	-can-	.
.	.	.	.	.	.	.	.	.	4f\	-tem	.
!	!	!	!LO:LB:g=original	!	!	!	!	!	!LO:LB:g=original	!	!
=61	=61	=61	=61	=61	=61	=61	=61	=61	=61	=61	=61
1AAn	cre-	.	1c	Cre-	.	1e-	cre-	.	4f\	qui	.
.	.	.	.	.	.	.	.	.	4f\	ex	.
.	.	.	.	.	.	.	.	.	8f\	Pa-	.
.	.	.	.	.	.	.	.	.	8f\	-tre	.
.	.	.	.	.	.	.	.	.	8g\	fi-	.
.	.	.	.	.	.	.	.	.	8f\	-li-	.
=62	=62	=62	=62	=62	=62	=62	=62	=62	=62	=62	=62
1BB-	-do	.	1B-	-do	.	1d	-do	.	4f\	-o-	.
.	.	.	.	.	.	.	.	.	8d\	-que	.
.	.	.	.	.	.	.	.	.	8d\	pro-	.
.	.	.	.	.	.	.	.	.	4f\	-ce-	.
.	.	.	.	.	.	.	.	.	4f#X\	-dit	.
=63	=63	=63	=63	=63	=63	=63	=63	=63	=63	=63	=63
1BBn	cre-	.	1G	Cre-	.	1d	cre-	.	4g\	qui	.
.	.	.	.	.	.	.	.	.	4g\	cum	.
!	!	!	!	!	!	!	!	!	!LO:PB:g=original	!	!
.	.	.	.	.	.	.	.	.	4g\	Pa-	.
.	.	.	.	.	.	.	.	.	8g\	-tre	.
.	.	.	.	.	.	.	.	.	8fn\	et	.
=64	=64	=64	=64	=64	=64	=64	=64	=64	=64	=64	=64
1C	-do	.	1G	-do	.	1c	-do	.	8f\	fi-	.
.	.	.	.	.	.	.	.	.	8e-\	-li-	.
.	.	.	.	.	.	.	.	.	4e-\	-o	.
.	.	.	.	.	.	.	.	.	4e-\	si-	.
.	.	.	.	.	.	.	.	.	4e-\	-mul	.
=65	=65	=65	=65	=65	=65	=65	=65	=65	=65	=65	=65
1D-X	cre-	.	1G	Cre-	.	1B-X	cre-	.	4e-\	a-	.
.	.	.	.	.	.	.	.	.	4e-\	-do-	.
.	.	.	.	.	.	.	.	.	4e-\	-ra-	.
.	.	.	.	.	.	.	.	.	8f\	-tur	.
.	.	.	.	.	.	.	.	.	8e-\	et	.
!	!	!	!	!	!	!LO:LB:g=original	!	!	!LO:LB:g=original	!	!
=66	=66	=66	=66	=66	=66	=66	=66	=66	=66	=66	=66
1C	-do	.	1E-	-do	.	1A-	-do	.	4e-\	con-	.
.	.	.	.	.	.	.	.	.	4c\	-glo-	.
.	.	.	.	.	.	.	.	.	4e-\	-ri-	.
.	.	.	.	.	.	.	.	.	4e-\	-fi-	.
!LO:LB:g=original	!	!	!	!	!	!	!	!	!	!	!
=67	=67	=67	=67	=67	=67	=67	=67	=67	=67	=67	=67
(>1BB-	cre-	.	1G	Cre-	.	(1B-	cre-	.	4e-\	-ca-	.
.	.	.	.	.	.	.	.	.	4d-X\	-tur	.
.	.	.	.	.	.	.	.	.	8d-\	qui	.
.	.	.	.	.	.	.	.	.	8f\	lo-	.
.	.	.	.	.	.	.	.	.	8e-\	-cu-	.
.	.	.	.	.	.	.	.	.	8d-\	-tus	.
=68	=68	=68	=68	=68	=68	=68	=68	=68	=68	=68	=68
2AA-X/)	.	.	2A-X\	.	.	2c\)	.	.	4c\	est	.
.	.	.	.	.	.	.	.	.	8c\	per	.
*	*	*	*	*	*	*	*	*	*custos:en	*	*
.	.	.	.	.	.	.	.	.	8c\	Pro-	.
!	!	!	!	!	!	!	!	!	!LO:LB:g=original	!	!
2GG/	-do	.	2B-\	-do	.	2c\	-do	.	4en\	-phe-	.
.	.	.	.	.	.	.	.	.	8en\	-tas	.
.	.	.	.	.	.	.	.	.	8e\	et	.
=69	=69	=69	=69	=69	=69	=69	=69	=69	=69	=69	=69
2FF/	cre-	.	(2A-\	Cre-	.	(1c	cre-	.	4f\	u-	.
.	.	.	.	.	.	.	.	.	4c\	-nam	.
2FF#X/	-do	.	2An\	.	.	.	.	.	4e-X\	San-	.
.	.	.	.	.	.	.	.	.	8e-\	-ctam	.
.	.	.	.	.	.	.	.	.	8e-\	ca-	.
!	!	!	!LO:LB:g=original	!	!	!	!	!	!	!	!
=70	=70	=70	=70	=70	=70	=70	=70	=70	=70	=70	=70
2GG/	cre-	.	4E-\	-do	.	2Bn\)	.	.	8d\	-tho-	.
.	.	.	.	.	.	.	.	.	8d\	-li-	.
.	.	.	4Bn\)	.	.	.	.	.	4d\	-cam	.
2AA-X/	-do	.	4c\	Cre-	.	2d\	-do	.	4r	.	.
.	.	.	4c\	-do	.	.	.	.	4f\	et	.
!	!	!	!	!	!	!	!	!	!LO:LB:g=original	!	!
=71	=71	=71	=71	=71	=71	=71	=71	=71	=71	=71	=71
(2GG/	cre-	.	2Bn\	cre-	.	[1d	cre-	.	4f\	a-	.
.	.	.	.	.	.	.	.	.	4d\	-po-	.
2AA-/)	.	.	2c\	.	.	.	.	.	4f\	-sto-	.
.	.	.	.	.	.	.	.	.	4f\	-li-	.
=72	=72	=72	=72	=72	=72	=72	=72	=72	=72	=72	=72
1GG	-do	.	2.Bn\	.	.	2.d\]	.	.	4f\	-cam	.
.	.	.	.	.	.	.	.	.	4f\	ec-	.
.	.	.	.	.	.	.	.	.	4.f\	-cle-	.
.	.	.	4d\	.	.	4Bn\	.	.	.	.	.
.	.	.	.	.	.	.	.	.	8d\	-si-	.
=73	=73	=73	=73	=73	=73	=73	=73	=73	=73	=73	=73
1GG	cre-	.	1G	-do	.	1Bn	-do	.	2d\	-am	.
.	.	.	.	.	.	.	.	.	4r	.	.
.	.	.	.	.	.	.	.	.	4d\	Con-	.
!	!	!	!	!	!	!	!	!	!LO:LB:g=original	!	!
=74	=74	=74	=74	=74	=74	=74	=74	=74	=74	=74	=74
(2C/	-cre-	.	((<2G\	Cre-	.	(<2c\	cre-	.	8e-\	-fi-	.
.	.	.	.	.	.	.	.	.	8e-\	-te-	.
.	.	.	.	.	.	.	.	.	4e-\	-or	.
!	!	!	!LO:TX:a:t=P:problem=brak początku ligatury	!	!	!	!	!	!	!	!
(2BB-X/)	.	.	[2B-X\))	.	.	2d\)	.	.	4f\	u-	.
.	.	.	.	.	.	.	.	.	8f\	-num	.
.	.	.	.	.	.	.	.	.	8f\	bap-	.
!LO:LB:g=original	!	!	!LO:LB:g=original	!	!	!LO:LB:g=original	!	!	!	!	!
=75	=75	=75	=75	=75	=75	=75	=75	=75	=75	=75	=75
!	!	!	!	!	!	!LO:TX:t=P:problem=skreślony takt	!	!	!	!	!
2E-\)	.	.	2B-\]	.	.	2e-\	.	.	4.g\	-tis-	.
.	.	.	.	.	.	.	.	.	8f\	-ma	.
2GG/	-do	.	2B-\	-do	.	2B-\	-do	.	8e-\	in	.
.	.	.	.	.	.	.	.	.	8e-\	re-	.
.	.	.	.	.	.	.	.	.	8e-\	-mi-	.
.	.	.	.	.	.	.	.	.	8d\	-si-	.
!	!	!	!	!	!	!	!	!	!LO:LB:g=original	!	!
=76	=76	=76	=76	=76	=76	=76	=76	=76	=76	=76	=76
2AA-/	cre-	.	(2A-\	cre-	.	1c	cre-	.	4c\	-o-	.
.	.	.	.	.	.	.	.	.	8d\L	-nem	.
.	.	.	.	.	.	.	.	.	8e-\J	.	.
2AAn/	.	.	2c\)	.	.	.	.	.	4.f\	pec-	.
.	.	.	.	.	.	.	.	.	8e-\	-ca-	.
=77	=77	=77	=77	=77	=77	=77	=77	=77	=77	=77	=77
2BB-/	.	.	2B-\	.	.	1d	.	.	4d\	-to-	.
.	.	.	.	.	.	.	.	.	8e-\L	-rum	.
.	.	.	.	.	.	.	.	.	8f\J	.	.
2BBn/	.	.	2d\	.	.	.	.	.	4.g\	et	.
.	.	.	.	.	.	.	.	.	8f\	ex-	.
=78	=78	=78	=78	=78	=78	=78	=78	=78	=78	=78	=78
1C	.	.	2c\	.	.	1e-	.	.	8e-\	-spec-	.
.	.	.	.	.	.	.	.	.	8e-\	-to	.
.	.	.	.	.	.	.	.	.	8f\	re-	.
.	.	.	.	.	.	.	.	.	8g\	-sur-	.
!	!	!	!	!	!	!	!	!	!LO:LB:g=original	!	!
.	.	.	2A-\	.	.	.	.	.	4.a-\	-re-	.
.	.	.	.	.	.	.	.	.	8g\	-cti-	.
=79	=79	=79	=79	=79	=79	=79	=79	=79	=79	=79	=79
1D	.	.	1B-	-do	.	2d\	.	.	8f\	-o-	.
.	.	.	.	.	.	.	.	.	8e-\	-nem	.
.	.	.	.	.	.	.	.	.	8d\	mor-	.
.	.	.	.	.	.	.	.	.	8c\	-tu-	.
.	.	.	.	.	.	2f\	-do	.	(4B-\	-o-	.
.	.	.	.	.	.	.	.	.	8c\L	.	.
.	.	.	.	.	.	.	.	.	8B-\J)	.	.
=80	=80	=80	=80	=80	=80	=80	=80	=80	=80	=80	=80
(2E-\	.	.	2G\	cre-	.	2g\	cre-	.	4B-\	-rum	.
.	.	.	.	.	.	.	.	.	4e-\	et	.
(2AA-/)	.	.	4A-\	.	.	[2e-\	.	.	8c\L	vi-	.
.	.	.	.	.	.	.	.	.	8d\J	.	.
.	.	.	4c\	.	.	.	.	.	8e-\	-tam	.
.	.	.	.	.	.	.	.	.	8f\	ven-	.
!	!	!	!	!	!	!	!	!	!LO:LB:g=original	!	!
=81	=81	=81	=81	=81	=81	=81	=81	=81	=81	=81	=81
1BB-	.	.	2B-\	.	.	2e-\]	.	.	4g\	-tu-	.
.	.	.	.	.	.	.	.	.	4g\	-ri	.
.	.	.	2A-\	.	.	2d\	.	.	4.f\	sae-	.
.	.	.	.	.	.	.	.	.	8f\	-cu-	.
!LO:LB:g=original	!	!	!LO:LB:g=original	!	!	!LO:LB:g=original	!	!	!	!	!
=82	=82	=82	=82	=82	=82	=82	=82	=82	=82	=82	=82
4E-\)	-do	.	4G\	-do	.	4e-\	-do	.	4e-\	-li	.
4r	.	.	4r	.	.	4r	.	.	4r	.	.
!	!	!LO:DY:rj	!	!	!LO:DY:rj	!	!	!LO:DY:rj:problem=na środku pięciolinii	!	!	!LO:DY:rj
4E-\	cre-	pp	4G\	cre-	pp	4B-\	Cre-	p	4e-\	a-	p
4E-\	-do	.	4G\	-do	.	4B-\	-do	.	4e-\	-men	.
=83	=83	=83	=83	=83	=83	=83	=83	=83	=83	=83	=83
1GG	cre-	.	1E-	cre-	.	1B-	cre-	.	1d-X	a-	.
=84	=84	=84	=84	=84	=84	=84	=84	=84	=84	=84	=84
4AA-/	-do	.	4E-\	-do	.	4A-/	-do	.	4c\	-men	.
4r	.	.	4r	.	.	4r	.	.	4r	.	.
!	!	!LO:DY:a:rj:problem=na środku pięciolinii	!	!	!LO:DY:rj:problem=na środku pięciolinii	!	!	!LO:DY:rj:problem=na środku pięciolinii	!	!	!
4AA-/	cre-	f	4A-\	Cre-	f	4c\	cre-	f	4f\	a-	.
4AA-/	do	.	4A-\	-do	.	4c\	-do	.	4f\	-men	.
!	!	!	!	!	!	!	!	!	!LO:LB:g=original	!	!
=85	=85	=85	=85	=85	=85	=85	=85	=85	=85	=85	=85
1BB-	cre-	.	1F	Cre-	.	1B-	cre-	.	1dn	a-	.
=86	=86	=86	=86	=86	=86	=86	=86	=86	=86	=86	=86
4E-\	-do.	.	4G\	-do	.	4B-\	-do	.	4e-\	-men.	.
4r	.	.	4r	.	.	4r	.	.	4r	.	.
!	!	!	!	!	!	!	!	!	!LO:TX:b:t=V&colon; S Offertorium	!	!
!	!	!	!	!	!	!	!	!	!LO:N:vis=1	!	!
2r;	.	.	2r;	.	.	2r;	.	.	2rb;	.	.
==	==	==	==	==	==	==	==	==	==	==	==
*-	*-	*-	*-	*-	*-	*-	*-	*-	*-	*-	*-
!!!system-decoration: [g1]
!!!RDF**kern: > = above
!!!RDF**kern: < = below
!!!ENC: Andrzej Kubiczek
!!!END: 2021-03-26
!!!ENC: Kamil Watkowski
!!!END: 2021-03-05
!!!YEC: Copyright 2022 Narodowy Instytut Fryderyka Chopina (https://polishscores.org)
!!!YEM: License CC-BY-4.0 (https://creativecommons.org/licenses/by/4.0)
